img/svg/tm01-1.svg

<svg width="24" height="19" viewBox="0 0 24 19" fill="none" xmlns="http://www.w3.org/2000/svg">
<path d="M23.4374 15.7588C23.5937 15.7588 23.7187 15.8213 23.8124 15.9463C23.9374 16.04 23.9999 16.165 23.9999 16.3213V17.4463C23.9999 17.6026 23.9374 17.7432 23.8124 17.8682C23.7187 17.9619 23.5937 18.0088 23.4374 18.0088H0.562378C0.406128 18.0088 0.265503 17.9619 0.140503 17.8682C0.0467529 17.7432 -0.00012207 17.6026 -0.00012207 17.4463V0.571289C-0.00012207 0.415039 0.0467529 0.290039 0.140503 0.196289C0.265503 0.0712891 0.406128 0.00878906 0.562378 0.00878906H1.68738C1.84363 0.00878906 1.96863 0.0712891 2.06238 0.196289C2.18738 0.290039 2.24988 0.415039 2.24988 0.571289V15.7588H23.4374ZM21.9374 1.50879H15.5624C15.3124 1.50879 15.1405 1.63379 15.0468 1.88379C14.953 2.10254 14.9843 2.29004 15.1405 2.44629L17.6249 4.88379L13.4999 9.00879L10.4999 6.00879L3.703 12.665L5.29676 14.2588L10.4999 9.10259L13.4999 12.0088L19.1718 6.47754L21.5624 8.82129C21.7187 9.00879 21.9061 9.05569 22.1249 8.96189C22.3749 8.86819 22.4999 8.69629 22.4999 8.44629V2.07129C22.4999 1.91504 22.4374 1.79004 22.3124 1.69629C22.2187 1.57129 22.0937 1.50879 21.9374 1.50879Z" fill="#BB33FF"/>
</svg>

<svg width="24" height="19" viewBox="0 0 24 19" fill="none" xmlns="http://www.w3.org/2000/svg"><path d="M23.437 15.759c.157 0 .282.062.375.187a.445.445 0 01.188.375v1.125a.583.583 0 01-.188.422.507.507 0 01-.375.14H.562a.686.686 0 01-.421-.14.686.686 0 01-.141-.422V.571A.51.51 0 01.14.196.583.583 0 01.563.01h1.125c.157 0 .282.062.375.187a.445.445 0 01.188.375V15.76h21.187zm-1.5-14.25h-6.375c-.25 0-.421.125-.515.375-.094.219-.063.406.093.562l2.485 2.438L13.5 9.009l-3-3-6.797 6.656 1.594 1.594L10.5 9.103l3 2.906 5.672-5.531 2.39 2.343c.157.188.344.235.563.14.25-.093.375-.265.375-.515V2.071a.445.445 0 00-.188-.375.445.445 0 00-.375-.187z" fill="#B3F"/></svg>
